src/asset/cabinet/crypto/dollar.svg

<svg width="72" height="72" viewBox="0 0 72 72" fill="none" xmlns="http://www.w3.org/2000/svg">
<g filter="url(#filter0_d)">
<rect x="16" y="16" width="40" height="40" rx="20" fill="url(#paint0_linear)"/>
</g>
<path d="M43.3254 38.8448C43.3254 40.1242 42.8573 41.2242 41.9211 42.1448C40.985 43.0498 39.6353 43.6115 37.8722 43.8299V46.4512H35.5318V43.9001C34.3772 43.8377 33.2772 43.6349 32.2318 43.2916C31.1864 42.9483 30.3438 42.5271 29.7041 42.0278L30.9913 39.1725C31.5842 39.6093 32.2786 39.976 33.0743 40.2725C33.8701 40.5689 34.6892 40.7561 35.5318 40.8342V36.9256C34.424 36.6604 33.4878 36.3639 32.7233 36.0363C31.9587 35.7086 31.319 35.2327 30.8041 34.6086C30.2892 33.9689 30.0318 33.1263 30.0318 32.081C30.0318 30.7859 30.4998 29.6781 31.436 28.7576C32.3878 27.8214 33.753 27.2519 35.5318 27.049V24.4512H37.8722V27.0022C39.7913 27.1583 41.375 27.6342 42.6233 28.4299L41.453 31.3086C40.2828 30.6377 39.0892 30.232 37.8722 30.0916V34.0703C38.9644 34.32 39.885 34.6086 40.6339 34.9363C41.3984 35.2483 42.0381 35.7242 42.553 36.3639C43.0679 36.9881 43.3254 37.815 43.3254 38.8448ZM33.7998 31.8937C33.7998 32.2838 33.9481 32.6037 34.2445 32.8533C34.541 33.1029 34.9701 33.3136 35.5318 33.4852V30.1618C34.9389 30.3022 34.502 30.5285 34.2211 30.8405C33.9403 31.137 33.7998 31.4881 33.7998 31.8937ZM37.8722 40.7405C38.4339 40.6157 38.8552 40.4129 39.136 40.132C39.4169 39.8512 39.5573 39.5157 39.5573 39.1256C39.5573 38.7356 39.4091 38.4157 39.1126 38.1661C38.8318 37.9164 38.4183 37.698 37.8722 37.5107V40.7405Z" fill="white"/>
<defs>
<filter id="filter0_d" x="8" y="12" width="56" height="56" filterUnits="userSpaceOnUse" color-interpolation-filters="sRGB">
<feFlood flood-opacity="0" result="BackgroundImageFix"/>
<feColorMatrix in="SourceAlpha" type="matrix" values="0 0 0 0 0 0 0 0 0 0 0 0 0 0 0 0 0 0 127 0"/>
<feOffset dy="4"/>
<feGaussianBlur stdDeviation="4"/>
<feColorMatrix type="matrix" values="0 0 0 0 0.317647 0 0 0 0 0.823529 0 0 0 0 0.368627 0 0 0 0.3 0"/>
<feBlend mode="normal" in2="BackgroundImageFix" result="effect1_dropShadow"/>
<feBlend mode="normal" in="SourceGraphic" in2="effect1_dropShadow" result="shape"/>
</filter>
<linearGradient id="paint0_linear" x1="56" y1="16" x2="16" y2="56" gradientUnits="userSpaceOnUse">
<stop stop-color="#6CD9B5"/>
<stop offset="1" stop-color="#36B374"/>
</linearGradient>
</defs>
</svg>

<svg width="72" height="72" fill="none" xmlns="http://www.w3.org/2000/svg"><g filter="url(#filter0_d)"><rect x="16" y="16" width="40" height="40" rx="20" fill="url(#paint0_linear)"/></g><path d="M43.325 38.845c0 1.28-.468 2.38-1.404 3.3-.936.905-2.286 1.466-4.049 1.685v2.621h-2.34v-2.55a12.732 12.732 0 01-3.3-.61c-1.046-.343-1.888-.764-2.528-1.263l1.287-2.855a8.485 8.485 0 002.083 1.1 9.53 9.53 0 002.458.561v-3.908c-1.108-.266-2.044-.562-2.809-.89a5.002 5.002 0 01-1.919-1.427c-.515-.64-.772-1.483-.772-2.528 0-1.295.468-2.403 1.404-3.323.952-.937 2.317-1.506 4.096-1.709v-2.598h2.34v2.551c1.92.156 3.503.632 4.751 1.428l-1.17 2.879c-1.17-.671-2.364-1.077-3.58-1.217v3.978c1.091.25 2.012.539 2.76.866a4.707 4.707 0 011.92 1.428c.515.624.772 1.451.772 2.48zM33.8 31.894c0 .39.148.71.445.96.296.249.725.46 1.287.631v-3.323c-.593.14-1.03.367-1.31.678a1.48 1.48 0 00-.422 1.054zm4.072 8.846c.562-.124.983-.327 1.264-.608.28-.28.421-.616.421-1.006s-.148-.71-.444-.96c-.281-.25-.695-.468-1.24-.655v3.23z" fill="#fff"/><defs><linearGradient id="paint0_linear" x1="56" y1="16" x2="16" y2="56" gradientUnits="userSpaceOnUse"><stop stop-color="#6CD9B5"/><stop offset="1" stop-color="#36B374"/></linearGradient><filter id="filter0_d" x="8" y="12" width="56" height="56" filterUnits="userSpaceOnUse" color-interpolation-filters="sRGB"><feFlood flood-opacity="0" result="BackgroundImageFix"/><feColorMatrix in="SourceAlpha" values="0 0 0 0 0 0 0 0 0 0 0 0 0 0 0 0 0 0 127 0"/><feOffset dy="4"/><feGaussianBlur stdDeviation="4"/><feColorMatrix values="0 0 0 0 0.317647 0 0 0 0 0.823529 0 0 0 0 0.368627 0 0 0 0.3 0"/><feBlend in2="BackgroundImageFix" result="effect1_dropShadow"/><feBlend in="SourceGraphic" in2="effect1_dropShadow" result="shape"/></filter></defs></svg>
